src/images/v2/icon_send.svg

<svg fill="none" height="31" viewBox="0 0 30 31" width="30" xmlns="http://www.w3.org/2000/svg"><path d="m25.7345 14.6657-20.62496-10.31254c-.16165-.08084-.34323-.11323-.52286-.09328-.17964.01996-.34967.09142-.48964.20578-.13366.11203-.23343.25911-.28808.42473-.05466.16562-.06203.34319-.02129.51277l2.48437 9.15934h10.60316v1.875h-10.60316l-2.52187 9.1313c-.03823.1416-.04269.2902-.01303.4339.02966.1436.09261.2783.1838.3932s.20806.2068.34123.2683c.13316.0615.2789.0909.4255.0858.14675-.0008.29126-.0362.42187-.1031l20.62496-10.3125c.1536-.0787.2825-.1982.3725-.3454s.1376-.3164.1376-.489c0-.1725-.0476-.3417-.1376-.4889s-.2189-.2668-.3725-.3454z" fill="#4fc4f9"/></svg>

<svg width="30" height="31" viewBox="0 0 30 31" fill="none" xmlns="http://www.w3.org/2000/svg">
<path d="M25.7345 14.6657L5.10954 4.35316C4.94789 4.27232 4.76631 4.23993 4.58668 4.25988C4.40704 4.27984 4.23701 4.3513 4.09704 4.46566C3.96338 4.57769 3.86361 4.72477 3.80896 4.89039C3.7543 5.05601 3.74693 5.23358 3.78767 5.40316L6.27204 14.5625H16.8752V16.4375H6.27204L3.75017 25.5688C3.71194 25.7104 3.70748 25.859 3.73714 26.0027C3.7668 26.1463 3.82975 26.281 3.92094 26.3959C4.01213 26.5108 4.129 26.6027 4.26217 26.6642C4.39533 26.7257 4.54107 26.7551 4.68767 26.75C4.83442 26.7492 4.97893 26.7138 5.10954 26.6469L25.7345 16.3344C25.8881 16.2557 26.017 16.1362 26.107 15.989C26.197 15.8418 26.2446 15.6726 26.2446 15.5C26.2446 15.3275 26.197 15.1583 26.107 15.0111C26.017 14.8639 25.8881 14.7443 25.7345 14.6657Z" fill="#4FC4F9"/>
</svg>
